Gruvbox-Material-Icons/actions/22/fitsize.svg

<svg xmlns="http://www.w3.org/2000/svg" width="22" height="22" version="1.1" viewBox="0 0 22 22">
 <defs>
  <style id="current-color-scheme" type="text/css">
   .ColorScheme-Text { color:#ebdbb2; } .ColorScheme-Highlight { color:#458588; }
  </style>
 </defs>
 <path style="fill:currentColor" class="ColorScheme-Text" d="m 4,5 v 2 3 2 5 h 2 v -5 h 5 V 10 5 H 6 Z m 2,2 h 3 v 3 H 6 Z m 6,3 v 1.537109 L 13.683594,13.5 12,15.462891 V 17 h 1.316406 L 15,15.037109 16.683594,17 H 18 V 15.462891 L 16.316406,13.5 18,11.537109 V 10 H 16.683594 L 15,11.962891 13.316406,10 Z"/>
</svg>

<svg width="22" height="22" version="1.1" viewBox="0 0 22 22" xmlns="http://www.w3.org/2000/svg">
  <defs>
    <style id="current-color-scheme" type="text/css">.ColorScheme-Text { color:#ebdbb2; } .ColorScheme-Highlight { color:#458588; }</style>
  </defs>
  <path class="ColorScheme-Text" d="m4 5v12h2v-5h5v-7h-5zm2 2h3v3h-3zm6 3v1.537l1.684 1.963-1.684 1.963v1.537h1.316l1.684-1.963 1.684 1.963h1.316v-1.537l-1.684-1.963 1.684-1.963v-1.537h-1.316l-1.684 1.963-1.684-1.963z" fill="currentColor"/>
</svg>
